!!!!SEGMENT: pl-kk--kk-i-356--004-002_palestrina-giovanni-pierluigi-da--veni-domine-et-noli-tardare-excita-domine.krn
!!!cenid: 17xx:1947
!!!COM: Palestrina, Giovanni Pierluigi da
!!!COM-rismid: pe1904
!!!CDT: ~1525-1594/02/02
!!!CNT: Italian
!!!OTL: Veni Domine et noli tardare – Excita Domine
!!!PDT:
!!!AGN: Sacred
!!!SMS-siglum: PL-Kk
!!!SMS-shelfmark: Kk.I.356
!!!SMS-shelfwork: 004-002 M
!!!SMS-variant:
!!!SMS-altvar:
!!!NIFC-rismid: 1001141855
!!!URL-scan: http://repozytorium.nifc.pl/skany/pl-kk-nut--i-356
!!!ONB-nifc: UWAGA: tylko partia basu. Osobne części motetu: 1. Veni Domine et noli tardare, 2. Excita Domine
**kern	**text
*I"Baſso	*
*I'B	*
*clefF3	*
*k[b-]	*
*g:dor	*
*M2/2	*
*met(c|)	*
=1-	=1-
!LO:TX:a:t=Pars secunda.	!
!LO:TX:a:t=P:problem:znaki BB- B-	!
00r	.
=2-	=2-
.	.
=3-	=3-
00r	.
=4-	=4-
.	.
=5-	=5-
1.G	Ex-
*2\right	*
2G\	-ci-
=6-	=6-
2G\	-ta
2.B-\	Do-
4A\	.
!	!
1G\	.
=7-	=7-
.	.
4F/	.
!LO:TX:t=P:problem:kreska pseudotaktowa	!
4E/	.
2.D/	.
4E/	.
=8-	=8-
2F\	.
2G\	-mi-
!LO:TX:t=P:problem:kreska pseudotaktowa	!
1C	-ne
=9-	=9-
2.G\	Do-
4F/	.
2E-X/	-mi-
2E-/	.
=10-	=10-
!	!
00D	-ne
=11-	=11-
.	.
=12-	=12-
!LO:TX:t=P:problem:kreska pseudotaktowa	!
00D	.
=13-	=13-
.	.
=14-	=14-
00r	.
=15-	=15-
.	.
=16-	=16-
1r	.
1A	po-
=17-	=17-
!.	!
1.d	-ten-
2d\	-ti-
!LO:LB:g=original	!
=18-	=18-
1B-,<	-am,
1A	tu-
=19-	=19-
2F\,<	-am,
2G\	et
1E-X	ve-
=20-	=20-
!LO:TX:t=P:problem:kreska pseudotaktowa	!
1D	-ni
00r	.
=21-	=21-
.	.
=22-	=22-
.	.
0r	.
=23-	=23-
.	.
!.	!
1.G	ex-
=24-	=24-
.	.
2G\	-ci-
2G\	-ta
!	!
1B-\	Do-
=25-	=25-
.	.
4A\	.
4G\	.
2F\	-mi-
2G\	.
=26-	=26-
!LO:TX:t=P:problem:kreska pseudotaktowa	!
0A	-ne
=27-	=27-
1r	.
2r	.
!	!
1G\	ex-
=28-	=28-
.	.
!LO:TX:t=P:problem:kreska pseudotaktowa	!
2G\	-ci-
2G\,<	-ta
!	!
1B-\	Do-
=29-	=29-
.	.
4A\	.
4G\	.
2F\	-mi-
2G\	-ne
!LO:LB:g=original	!
=30-	=30-
1A	po-
!.	!
1.d	-ten-
=31-	=31-
.	.
2c\	-ti-
!LO:TX:t=P:problem:kreska pseudotaktowa	!
1B-	-ă
=32-	=32-
1A	tu-
2F\	-am
2G\	et
=33-	=33-
1E-X	ve-
!LO:TX:t=P:problem:kreska pseudotaktowa	!
1D	-ni
=34-	=34-
00r	.
=35-	=35-
.	.
=36-	=36-
0r	.
=37-	=37-
1r	.
!	!
0C	et
=38-	=38-
.	.
!	!
0G	ve-
=39-	=39-
.	.
!LO:TX:t=P:problem:kreska pseudotaktowa	!
0D	-ni
=40-	=40-
.	.
1r	.
=41-	=41-
1C	ut
!.	!
1.c	sal-
=42-	=42-
.	.
2B#X\	-vos
1c	nos
=43-	=43-
2B-\	fa-
2A\	-ci-
!LO:TX:t=P:problem:kreska pseudotaktowa	!
0G	-as
=44-	=44-
!	!
.	.
00r	.
=45-	=45-
.	.
=46-	=46-
!LO:TX:t=P:problem:urwana strona	!
.	.
!LO:PB:g=original	!
0C	ut
=47-	=47-
.	.
!	!
1.G	sal-
=48-	=48-
.	.
2F#X/	-vum
1G	fa-
=49-	=49-
2F/	.
2E/	-ci-
!LO:TX:t=P:problem:kreska pseudotaktowa	!
0D	-as
=50-	=50-
!	!
.	.
2.B-\	fa-
4A\	.
=51-	=51-
!	!
1.G	.
2F#X/	-ci-
=52-	=52-
!LO:TX:t=P:problem:kreska pseudotaktowa	!
1G	-as
2rD	.
2D/	et
=53-	=53-
2.G\	re-
4G\	-vo-
2G\	-ca
2A\	dis-
=54-	=54-
!LO:TX:t=P:problem:kreska pseudotaktowa	!
1B-	-per-
2A\	-sos
2A\	in
=55-	=55-
2F\	ter-
2D/	-ra(m)
1A	su-
=56-	=56-
!LO:TX:t=P:problem:kreska pseudotaktowa	!
1D	-am
!LO:LB:g=original	!
00r	.
=57-	=57-
.	.
=58-	=58-
.	.
0r	.
=59-	=59-
.	.
1r	.
=60-	=60-
1D	et
2.G\	re-
4G\	-vo-
=61-	=61-
2G\	-ca
2A\	dis-
1B-	-per-
=62-	=62-
!LO:TX:t=P:problem:kreska pseudotaktowa	!
1A	-sos.
2r	.
2F/	in
=63-	=63-
2G\	ter-
2B-\	-ram
1A	su-
=64-	=64-
!LO:TX:t=P:problem:kreska pseudotaktowa	!
1D	-am
0r	.
=65-	=65-
.	.
1D	et
=66-	=66-
2.G\	re-
4G\	-vo-
2G\	-ca
2A\	di-
=67-	=67-
1B-	-sper-
!	!
1.G	-sos
=68-	=68-
.	.
!LO:TX:t=P:problem:kreska pseudotaktowa	!
2F#X/	in
!LO:LB:g=original	!
1G	ter-
=69-	=69-
1D	-ra(m)
1G	su-
=70-	=70-
1F	.
!LO:TX:t=P:problem:kreska pseudotaktowa	!
1BB-	-am
=71-	=71-
2rC	.
2BB-/	in
2C/	ter-
2E-X/	-ram
=72-	=72-
1D	su-
!LO:TX:t=P:problem:kreska pseudotaktowa	!
1G	-a(m)
=73-	=73-
*	*ij
1C	in
1G	ter-
=74-	=74-
1G	-ram
!	!
0C	su-
=75-	=75-
.	.
!LO:TX:b:t=Sequitur\n de Nat&colon; D(omi)ni.	!
0G;	-am
*	*Xij
=||-	=||-
*-	*-
!!!RDF**kern: < = below
!!!ENC: Marta Lawrence
!!!END: 2021-02-23
!!!ENC: Andrzej Gręziak
!!!END: 2021-02-06
